modules/coreui-icons-brand/icons/the-movie-database.svg

<svg version="1.1" xmlns="http://www.w3.org/2000/svg" width="32" height="32" viewBox="0 0 32 32">
<title>the-movie-database</title>
<path d="M25.99 29.198c2.807 0 4.708-1.896 4.708-4.708v-19.781c0-2.807-1.901-4.708-4.708-4.708h-19.979c-2.807 0-4.708 1.901-4.708 4.708v27.292l2.411-2.802v-24.49c0.005-1.266 1.031-2.292 2.297-2.292h19.974c1.266 0 2.292 1.026 2.292 2.292v19.781c0 1.266-1.026 2.292-2.292 2.292h-16.755l-2.417 2.417-0.016-0.016zM11.714 15.286h-2.26v7.599h2.26c5.057 0 5.057-7.599 0-7.599zM11.714 21.365h-0.734v-4.557h0.734c2.958 0 2.958 4.557 0 4.557zM11.276 13.854h1.516v-6.083h1.891v-1.505h-5.302v1.505h1.896zM18.75 9.599l-2.625-3.333h-0.49v7.714h1.542v-4.24l1.573 2.042 1.578-2.042-0.010 4.24h1.542v-7.714h-0.479zM21.313 19.089c0.474-0.333 0.677-0.922 0.698-1.5 0.031-1.339-0.807-2.307-2.156-2.307h-3.005v7.609h3.005c1.24-0.010 2.245-1.021 2.245-2.26v-0.036c0-0.62-0.307-1.172-0.781-1.5zM18.37 16.802h1.354c0.432 0 0.698 0.339 0.698 0.766 0.031 0.406-0.286 0.76-0.698 0.76h-1.354zM19.724 21.37h-1.354v-1.516h1.37c0.411 0 0.745 0.333 0.745 0.745v0.016c0 0.417-0.333 0.755-0.75 0.755z"></path>
</svg>

<svg xmlns="http://www.w3.org/2000/svg" width="32" height="32" viewBox="0 0 32 32"><path d="M25.99 29.198c2.807 0 4.708-1.896 4.708-4.708V4.709c0-2.807-1.901-4.708-4.708-4.708H6.011c-2.807 0-4.708 1.901-4.708 4.708v27.292l2.411-2.802V4.709a2.3 2.3 0 012.297-2.292h19.974a2.292 2.292 0 012.292 2.292V24.49a2.292 2.292 0 01-2.292 2.292H9.23l-2.417 2.417-.016-.016zM11.714 15.286h-2.26v7.599h2.26c5.057 0 5.057-7.599 0-7.599zm0 6.079h-.734v-4.557h.734c2.958 0 2.958 4.557 0 4.557zm-.438-7.511h1.516V7.771h1.891V6.266H9.381v1.505h1.896zm7.474-4.255l-2.625-3.333h-.49v7.714h1.542V9.74l1.573 2.042 1.578-2.042-.01 4.24h1.542V6.266h-.479zm2.563 9.49c.474-.333.677-.922.698-1.5.031-1.339-.807-2.307-2.156-2.307H16.85v7.609h3.005a2.265 2.265 0 002.245-2.26v-.036a1.82 1.82 0 00-.781-1.5zm-2.943-2.287h1.354c.432 0 .698.339.698.766a.703.703 0 01-.698.76H18.37zm1.354 4.568H18.37v-1.516h1.37c.411 0 .745.333.745.745v.016a.75.75 0 01-.75.755z"/></svg>
